X: 7
T: Johnny Allen's
Z: Aberfoyle Whistler
S: https://thesession.org/tunes/278#setting47395
R: reel
M: 4/4
L: 1/8
K: Dmix
|:A3B AGFA|DccB cedc|A2 BG AGFA|D ~G3 D ~G3|
A2 BG AGFG|Adde ~f3 g|afge f2 e^c|dcAF GGFG:|
|:AAdc AGFG|Adde fde^c|AAdc AGFA|D ~G3 D ~G3|
AAdc AGFG|AAde f3 g|afge fde^c|dcAF G2FG:|
|:~A3 g fd=fe|dcAB cedc|~A3g fd=fe|dcAF G2FG|
A3g fd=fe|dcAB cdeg|ffec dBcA|dBcA G2FG:|

%-------------------- TUNE SEPARATOR --------------------%

